brandFactory_export/2.Regular/Academic_2Regular.svg

<?xml version="1.0" encoding="UTF-8"?>
<svg width="24px" height="24px" viewBox="0 0 24 24" version="1.1" xmlns="http://www.w3.org/2000/svg" xmlns:xlink="http://www.w3.org/1999/xlink">
    <title>2.Regular/Academic_2Regular</title>
    <g id="Symbols" stroke="none" stroke-width="1" fill="none" fill-rule="evenodd">
        <g id="2.Regular/Academic_2Regular" fill="#5CB615" fill-rule="nonzero">
            <path d="M23.0235294,19.1815126 L22.4352941,19.1815126 C22.5327731,18.8857143 22.6302521,18.5932773 22.7310924,18.4957983 C22.9260504,18.5932773 23.0235294,18.8857143 23.0235294,19.1815126 C23.1210084,19.1815126 23.1210084,19.1815126 23.0235294,19.1815126 Z M19.194958,16.1361345 C19.194958,16.3310924 19,16.5294118 18.8016807,16.6268908 C17.1310924,16.9226891 14.7747899,17.6084034 12.9092437,18.9831933 C12.6134454,19.1781513 12.2201681,19.1781513 11.9277311,18.9831933 C10.1596639,17.5109244 7.80336134,16.9193277 6.03529412,16.6268908 C5.84033613,16.6268908 5.64201681,16.4319328 5.64201681,16.1361345 L5.64201681,12.405042 L11.5344538,15.0571429 C11.7294118,15.1546218 12.0252101,15.2521008 12.2235294,15.2521008 C12.5193277,15.2521008 12.7142857,15.1546218 12.912605,15.0571429 L19.1411765,12.2302521 L19.194958,16.1361345 L19.194958,16.1361345 Z M2.49915966,9.16470588 C2.49915966,9.06722689 2.56638655,8.94285714 2.69411765,8.86890756 L12.2201681,4.54957983 L12.4151261,4.54957983 L21.1546218,8.4789916 L12.2168067,8.4789916 C11.8235294,8.4789916 11.5277311,8.77478992 11.5277311,9.16470588 C11.5277311,9.55462185 11.8235294,9.85042017 12.2168067,9.85042017 L20.9563025,9.85042017 L12.5092437,13.6789916 L12.2134454,13.6789916 L2.68739496,9.35966387 C2.57310924,9.29579832 2.49915966,9.26218487 2.49915966,9.16470588 Z M23.6117647,17.2184874 L23.6117647,9.65546218 C23.5983193,9.01344538 23.5815126,7.90084034 22.6302521,7.49411765 L13.1042017,3.17478992 C12.6134454,2.97983193 12.1226891,2.97983193 11.6319328,3.17478992 L2.10588235,7.49411765 C1.41680672,7.78991597 1.02689076,8.37815126 1.02689076,9.16470588 C1.02689076,9.85042017 1.42016807,10.5394958 2.10588235,10.8352941 L4.26722689,11.8168067 L4.26722689,16.1361345 C4.26722689,17.1176471 4.95630252,17.9042017 5.83697479,18.0991597 C7.3092437,18.394958 9.47058824,18.9831933 11.0403361,20.2605042 C11.4336134,20.5563025 11.9243697,20.7512605 12.4151261,20.7512605 C12.9058824,20.7512605 13.3966387,20.5563025 13.789916,20.2605042 C15.3596639,18.9831933 17.5210084,18.394958 18.9932773,18.0991597 C19.8773109,17.9042017 20.5630252,17.1176471 20.5630252,16.1361345 L20.5630252,11.7159664 L22.0352941,11.0302521 L22.0352941,17.2184874 C21.2487395,17.6117647 20.8554622,18.7882353 20.8554622,19.4773109 C20.8554622,19.8705882 20.9529412,20.1630252 21.1512605,20.3613445 C21.5445378,20.7546218 22.0352941,20.7546218 22.4285714,20.7546218 L23.0134454,20.7546218 C23.4067227,20.7546218 23.702521,20.7546218 23.994958,20.4588235 C24.6336134,19.9210084 24.4890756,17.6991597 23.6117647,17.2184874 L23.6117647,17.2184874 Z" id="Academic_2Regular"></path>
        </g>
    </g>
</svg>

<svg width="24" height="24" viewBox="0 0 24 24" xmlns="http://www.w3.org/2000/svg"><path d="M23.024 19.182h-.589c.098-.296.195-.589.296-.686.195.097.293.39.293.686.097 0 .097 0 0 0zm-3.829-3.046c0 .195-.195.393-.393.49-1.67.297-4.027.982-5.893 2.357a.897.897 0 01-.981 0c-1.768-1.472-4.125-2.064-5.893-2.356-.195 0-.393-.195-.393-.49v-3.732l5.892 2.652c.195.098.491.195.69.195.295 0 .49-.097.689-.195l6.228-2.827.054 3.906zM2.499 9.165c0-.098.067-.222.195-.296l9.526-4.32h.195l8.74 3.93h-8.938a.673.673 0 00-.69.686c0 .39.297.685.69.685h8.74l-8.448 3.829h-.296l-9.526-4.32c-.114-.063-.188-.097-.188-.194zm21.113 8.053V9.655c-.014-.642-.03-1.754-.982-2.16l-9.526-4.32a1.926 1.926 0 00-1.472 0l-9.526 4.32c-.69.295-1.08.883-1.08 1.67 0 .685.394 1.374 1.08 1.67l2.161.982v4.32c0 .98.69 1.767 1.57 1.962 1.472.296 3.634.884 5.203 2.162.394.295.884.49 1.375.49.49 0 .982-.195 1.375-.49 1.57-1.278 3.731-1.866 5.203-2.162a2.003 2.003 0 001.57-1.963v-4.42l1.472-.686v6.188c-.786.394-1.18 1.57-1.18 2.26 0 .393.098.685.296.883.394.394.884.394 1.278.394h.584c.394 0 .69 0 .982-.296.639-.538.494-2.76-.383-3.24z" fill="#5CB615" fill-rule="nonzero"/></svg>
